X:132
T:John Bowes
R:Reel
C:Tom Anderson
B:Mel Bay's Irish Session Tune Book p27
S:Mel Bay's Irish Session Tune Book p27
Z:Transcription, slight arr., chords:Mike Long
M:C|
L:1/8
K:C
B,2|\
"Am"A,CEC "G"B,DGF|"C"EccB cGEG|"F"FAdF "C"EGcG|"F"FEDC "G"B,G,A,B,|\
"C"C2EC "G"B,DGF|
"C"EccB cGEG|"F"FAdc "G"BGFD|"G"ECCB, "C"C2:|\
|:ef|\
"C"ge~e2 "G"fdBd|"C"c2Bd cGEG|
"F"FAdF "C"EGce|"F"fedc "G"defa|\
"C"ge~e2 "G"fdBd|"C"c2Bd cGEG|"F"FAdc "G"BGFD|"G"ECCB, "C"C2:|
